X: 38713
T: Stream, The
R: reel
M: 4/4
K: Dmajor
EF{A/}F EF{A/}F EF|zEFGFE{A/}ED|DE{A/}EDE{A/}E DE|zDEF ED{A/}D2|
DE{A/}EDE{A/}E DJE-|EDEF EDBz|DE{A/}EDE{A/}E DE|{A/}EDEF!slide!A3 B|
F2{A/}FE ~F3E|~F3G FE{A/}ED|z2ED ~E3D|~E3 FED{A/}Dz|
DE{A/}E D~E3 D|~E3 FED{A/}Dz|DE{A/}E D~E3 D|~E3F AB!slide!BA|
F z{A/}FE!slide!F3z|zEFGFE{A/}ED|z2 FEFJA3|zF{A/}FG FE{A/}ED|
zE{A/}ED ~E3 D|z2EF EDBD{A/}D|E{A/}EDEz4|z8|zF{A/}FE~F3E|
~F3GFE{A/}ED|DE{A/}EDE{A/}EFE|zDEF{A/}EDEF|AFED~E2D~E-|
EDEF{c/}AF{A/}ED|EzEDEFAF|zFAFJBdef|Jf2dBABFE|
{A/}EDEFABdB|Jf2dBAF~E2-|EDEFABdz|Jf2defazf|
e{a/}edBe{a/}edz|AB{c/}BABFAB|(3dedBAFE{A/}ED|EF{A/}F EF{A/}F EF|
zEFAFE{A/}ED|DE{A/}EDE{A/}E DE|zD{A/}EF EDEA|DE{A/}EDEz DE|
{A/}EDEFEDBz|DE{A/}ED~E2DE|zDEFABFA|JB2{c/}BAB{c/}BAB|
zABc{c/}BAFD|AJB{c/}BAB{c/}BAB|zABc{c/}BAFD|DE{A/}EDE{A/}E DE|
zDEFEDBz|DE{A/}EDEF2~F-|F2GFGABc|def4gf|
zefg{a/}fe{a/}ed|ef{a/}f~e3de|zdef{a/}edBz|ABd~e3de|
zdef{a/}edBz|ABd~e3de|zJ{c'/}g2f2edc|JB6AB|
zABc{c/}BAFA|EFBAB{c/}BAB|zABc{c/}BAFz|DE{A/}EDE{A/}E DE|
zDEF {A/}EDBz|DE{A/}EDE{A/}EDE-|E D{A/}EF{c/}AFEF|JB6AB|
zA{c/}Bd{a/}edBz|zA{c/}Bde{a/}ede|f{a/}fefa{c'/}afz|b2{c'/}baf2{a/}fd|
e2{a/}edB2{c/}BA|F2{A/}FDE2{A/}ED~|F3!D~E3D|JF8-|F8|

